dist/assets/img/logo.svg

<svg width="130" height="26" viewBox="0 0 130 26" fill="none" xmlns="http://www.w3.org/2000/svg">
<path d="M100.881 25.7297L91.4456 17.5676C94.4335 17.4865 95.9012 17.1081 97.3952 16.2703C99.5182 15.1081 100.698 12.6216 100.698 10.027C100.698 6.83784 99.7278 4.2973 97.4738 2.56757C95.4294 1 92.9395 0.351351 87.9335 0.351351H70.2944V25.7297H76.2439V13.027L90.9476 25.7297H100.881ZM76.2439 12.973V7.40541H89.6109C91.8649 7.40541 92.9133 7.54054 93.7258 8.05405C94.4073 8.51351 94.8004 9.32432 94.8004 10.1892C94.8004 11 94.4597 11.8378 93.7258 12.3514C93.0706 12.7838 92.3367 13 90.7903 13H76.2439V12.973ZM63.3488 3.21622C60.9899 1.08108 58.2641 0.0540541 49.3266 0.0540541C40.3891 0.0540541 37.6633 1.08108 35.3044 3.21622C33.2077 5.10811 32.1855 8.24324 32.1855 13.027C32.1855 17.8108 33.2077 20.9459 35.3044 22.8378C37.6633 24.973 40.3891 26 49.3266 26C58.2641 26 60.9899 24.973 63.3488 22.8378C65.4456 20.9459 66.4677 17.8108 66.4677 13.027C66.4677 8.24324 65.4456 5.10811 63.3488 3.21622ZM58.4738 17.4324C56.9274 18.4324 54.8306 18.973 49.3004 18.973C43.7702 18.973 41.6996 18.4324 40.127 17.4324C38.4758 16.3784 38.0564 15.027 38.0564 13.027C38.0564 11.027 38.4758 9.67568 40.127 8.62162C41.6734 7.62162 43.7702 7.08108 49.3004 7.08108C54.8306 7.08108 56.9012 7.62162 58.4738 8.62162C60.125 9.67568 60.5444 11.027 60.5444 13.027C60.5444 15.027 60.125 16.3784 58.4738 17.4324ZM17.1411 18.973C11.6371 18.973 9.54032 18.4324 7.96774 17.4324C6.34274 16.3784 5.89718 15.027 5.89718 13.027C5.89718 11.027 6.34274 9.67568 7.96774 8.62162C9.51411 7.62162 11.6371 7.08108 17.1411 7.08108C21.9637 7.08108 26.3669 7.56757 28.3851 8.05405L29.7218 1.97297C27.0222 0.891892 21.8064 0 16.6431 0C7.8629 0 5.45161 1.02703 3.11895 3.16216C1.02218 5.05405 0 8.18919 0 12.973C0 17.7568 1.02218 20.8919 3.11895 22.7838C5.47782 24.9189 7.88911 25.9459 16.6431 25.9459C21.7802 25.9459 27.0222 25.0541 29.7218 23.973L28.3851 17.8919C26.3407 18.4595 21.9375 18.973 17.1411 18.973ZM129.319 15.2432V10.8378H110.369L115.506 15.2432H129.319ZM130 7.37838V0.324324H104.446V25.7297H130V18.6757H110.395V10.8378V7.37838H130Z" fill="#262B37"/>
</svg>

<svg width="130" height="26" viewBox="0 0 130 26" fill="none" xmlns="http://www.w3.org/2000/svg"><path d="M100.881 25.73l-9.435-8.162c2.987-.082 4.455-.46 5.95-1.298 2.122-1.162 3.302-3.648 3.302-6.243 0-3.19-.97-5.73-3.224-7.46C95.429 1 92.939.352 87.934.352h-17.64V25.73h5.95V13.027L90.948 25.73h9.933zM76.244 12.973V7.405H89.61c2.254 0 3.302.136 4.115.649.681.46 1.074 1.27 1.074 2.135 0 .811-.34 1.649-1.074 2.162-.655.433-1.39.649-2.936.649H76.244v-.027zM63.349 3.216C60.989 1.081 58.264.054 49.327.054c-8.938 0-11.664 1.027-14.023 3.162-2.096 1.892-3.119 5.027-3.119 9.811s1.023 7.919 3.12 9.81C37.662 24.974 40.388 26 49.326 26c8.937 0 11.663-1.027 14.022-3.162 2.097-1.892 3.119-5.027 3.119-9.811s-1.022-7.919-3.12-9.81zm-4.875 14.216c-1.547 1-3.643 1.541-9.174 1.541-5.53 0-7.6-.54-9.173-1.54-1.651-1.055-2.07-2.406-2.07-4.406 0-2 .419-3.351 2.07-4.405 1.546-1 3.643-1.54 9.173-1.54s7.601.54 9.174 1.54c1.651 1.054 2.07 2.405 2.07 4.405 0 2-.419 3.351-2.07 4.405zM17.14 18.973c-5.504 0-7.6-.54-9.173-1.54-1.625-1.055-2.07-2.406-2.07-4.406 0-2 .445-3.351 2.07-4.405 1.546-1 3.67-1.54 9.173-1.54 4.823 0 9.226.486 11.244.972l1.337-6.081C27.022.892 21.806 0 16.643 0 7.863 0 5.452 1.027 3.12 3.162 1.022 5.054 0 8.19 0 12.973s1.022 7.919 3.119 9.81c2.359 2.136 4.77 3.163 13.524 3.163 5.137 0 10.38-.892 13.079-1.973l-1.337-6.081c-2.044.567-6.448 1.081-11.244 1.081zm112.178-3.73v-4.405h-18.95l5.137 4.405h13.813zM130 7.378V.324h-25.554V25.73H130v-7.054h-19.605V7.378H130z" fill="#262B37"/></svg>
